X: 837
T: Rocky Mountain Goat
B: jims roots
M:C|
L:1/8
Q: 1/4=100
K:D
V:1 
(3ABc | "D"d2fg fedA | "G"BBgB g2BA- | "D"Affe fgaf | "A"edcB AGFE |
"D"D2fg fedc | "G"BBgB g3e | "D"fgaf "A"edcA | "D"d3[Dd] d3A ||
"D"AAfg fedc | "G"BBgg g3A- | "D"AffA f3f | "A"gfed cABc |
"D"[D2d]fg fedA | "G"BBgB g3e | "D"fgaf "A"edcA | "D"d3[Dd] d2 (3A,B,C |]
"D"D2DD F2A2 | "G"BcdB "D"AGFD | "G"GBAG "D"FEDF | "A"DEED FEDC |
"D"D2DD FGA2 | "G"BcdB "D"AGFD | "G"GBAG "D"FEDF | "A"EDC2 "D"D3E |[M:1/2]D2A,2 ||
"D"FEDE FGAA | "G"BcdB "D"AGFD | "G"GBAG "D"FEDF | "A"EDCC "D"D3E |[M:1/2]D4|]
V:M:C| 
"D"D2DD F2A2 | "G"BcdB "D"AGFD | "G"GBAG "D"FEDF | "A"DEED E3E |
% abcbook-tune_id 6298c279893b012758ee16ea


% abcbook-boost 0
% abcbook-tablature 
% abcbook-transpose 
% abcbook-lastupdated 1654178427057
% abcbook-soundfonts 
% abcbook-repeats 1


